<jittershader name="AB Additive"> 
	<param name="tex0" type="int" default="0" /> 
	<param name="tex1" type="int" default="1" />
	<param name="tex2" type="int" default="2" />
	<language name="glsl" version="1.0"> 
		<bind param="tex0" program="fp" />
		<bind param="tex1" program="fp" />
		<bind param="tex2" program="fp" />
		<program name="vp" type="vertex" source="v001.co3.vp.glsl" />
		<program name="fp" type="fragment" source="v001.co3.lumamix.fp.glsl" /> 
	</language> 
</jittershader> 
